static/images/mobile/copyright/wikipedia-wordmark-alt.svg

<?xml version="1.0" encoding="UTF-8"?>
<svg width="120px" height="20px" viewBox="0 0 120 20" version="1.1" xmlns="http://www.w3.org/2000/svg" xmlns:xlink="http://www.w3.org/1999/xlink">
    <title>wikipedia-wordmark-alt</title>
    <g id="Page-1" stroke="none" stroke-width="1" fill="none" fill-rule="evenodd">
        <path d="M6.49120154,-1.77635684e-15 C11.1629313,-1.77635684e-15 11.8914644,2.2163036 11.8914644,3.92458799 C11.8914644,5.30814947 10.7637734,6.61820635 9.50582105,7.26486084 L9.50582105,7.31603494 C11.6914202,7.95431549 13.3736523,9.35369442 13.3736523,11.8026076 C13.3736523,13.9928589 12.0421954,16.5441202 7.04481223,16.5441202 C4.80989986,16.5441202 4.45819425,16.4910852 3.37795559,16.4910852 C2.09767274,16.4910852 1.34401786,16.5171375 0.113048232,16.5441202 C-0.0376827439,16.3905979 -0.0376827439,15.8546656 0.113048232,15.7011433 C1.87157628,15.6257778 2.29771694,15.4983078 2.29771694,13.3834219 L2.29771694,3.16069829 C2.29771694,1.04581245 1.87157628,0.917411986 0.113048232,0.841116061 C-0.0376827439,0.689454647 -0.0376827439,0.15352229 0.113048232,0.00093043812 C1.36913969,0.0251218292 2.0967423,0.0521045347 3.35283377,0.0521045347 C4.43214198,0.0511740966 5.61193752,-1.77635684e-15 6.49120154,-1.77635684e-15 Z M4.43214198,7.16251265 L6.29115735,7.16251265 C8.37533874,7.16251265 9.85752666,6.39676208 9.85752666,4.23349345 C9.85752666,1.63198846 8.02363313,0.868098766 6.61774113,0.868098766 C4.43214198,0.868098766 4.43214198,1.12117793 4.43214198,1.96322443 L4.43214198,7.16251265 Z M4.43214198,13.9919284 C4.43214198,14.8339749 4.75872576,15.7002128 6.51725381,15.7002128 C10.3348414,15.7002128 11.0373222,14.1473116 11.0373222,12.2845745 C11.0373222,9.99197497 9.60537793,8.02875054 6.1655482,8.02875054 L4.43214198,8.02875054 L4.43214198,13.9919284 L4.43214198,13.9919284 Z M27.3125458,15.9291006 C27.4251288,16.0351706 27.4251288,16.4175806 27.3125458,16.5264419 C26.370012,16.5078331 25.8238448,16.4892244 24.8822414,16.4892244 C23.9210988,16.4892244 23.3563229,16.5087636 22.4333283,16.5264419 C22.3198148,16.4185111 22.3198148,16.036101 22.4333283,15.9291006 C23.7517591,15.8732743 24.0727603,15.7848827 24.0727603,14.2812947 L24.0727603,7.83801072 C23.9313337,7.88360219 23.8354985,7.96548075 23.7433852,8.07248113 L18.5980624,14.2273293 C18.3775485,14.4980868 18.1896,14.6432351 18.0593387,15.0730975 C18.1933218,15.8211698 18.6129494,15.88537 19.6457357,15.9291006 C19.7592491,16.0370314 19.7592491,16.4175806 19.6457357,16.5264419 C18.7032019,16.5069027 18.1570347,16.4892244 17.2154313,16.4892244 C16.2542887,16.4892244 15.6895128,16.5087636 14.7665182,16.5264419 C14.6539352,16.4185111 14.6539352,16.0379619 14.7665182,15.9291006 C16.084949,15.8742048 16.4059502,15.7848827 16.4059502,14.2812947 L16.4059502,7.02294693 C16.4059502,5.52215024 16.0858794,5.42910643 14.7665182,5.37514102 C14.6539352,5.26814064 14.6539352,4.88666101 14.7665182,4.77966062 C15.709052,4.79733895 16.2552192,4.81408683 17.1968226,4.81408683 C18.1579651,4.81408683 18.7227411,4.79547807 19.6457357,4.77966062 C19.7592491,4.88573057 19.7592491,5.2672102 19.6457357,5.37514102 C18.3273049,5.43003687 18.0063037,5.5212198 18.0063037,7.02294693 L18.0063037,13.4653005 C18.0928345,13.4606483 18.2016957,13.3992394 18.3394006,13.2671172 L23.5163583,7.07691234 C23.7294286,6.82011142 23.904351,6.49166676 24.0132122,6.19857876 C23.8736465,5.4821414 23.4502972,5.41701073 22.4323979,5.37607146 C22.3188844,5.26814064 22.3188844,4.88666101 22.4323979,4.77873018 C23.3749317,4.79733895 23.9210988,4.81501727 24.8627022,4.81501727 C25.8229144,4.81501727 26.3886207,4.79547807 27.3116154,4.77873018 C27.4241984,4.88573057 27.4241984,5.2672102 27.3116154,5.37607146 C25.9931845,5.43003687 25.6721834,5.52028937 25.6721834,7.02387737 L25.6721834,14.2812947 C25.6731138,15.7848827 25.9931845,15.8760656 27.3125458,15.9291006 L27.3125458,15.9291006 Z M28.5742199,16.1524058 C28.5742199,16.0621533 28.6309766,16.0091183 28.7063421,16.0091183 L29.2143613,15.9746921 C30.0061642,15.9170049 30.2322606,15.719752 30.2322606,15.2145241 L30.2322606,6.11018713 C30.2322606,5.56681127 29.9494074,5.4039846 29.2143613,5.34908875 L28.7249509,5.3137321 C28.6495854,5.3137321 28.5742199,5.25883625 28.5742199,5.17044463 L28.5742199,4.82618253 L28.6123678,4.79175632 C29.5549017,4.80943464 30.1196776,4.82618253 31.061281,4.82618253 C32.0038148,4.82618253 32.549982,4.80757377 33.4729766,4.79175632 L33.5111246,4.82618253 L33.5111246,5.17044463 C33.5111246,5.26162757 33.4543678,5.3137321 33.3603936,5.3137321 L32.8709831,5.34908875 C32.1173282,5.40677592 31.8344751,5.60309836 31.8344751,6.11018713 L31.8344751,9.87380933 C32.5127644,9.87380933 33.3603936,9.85613101 33.8125865,9.60305184 C34.9235296,9.02338889 35.187774,7.86592387 35.3571138,6.85267675 C35.5459927,5.73242926 36.0735511,4.71639083 37.5613217,4.71639083 C38.5596818,4.71639083 38.8992917,5.24022749 38.8992917,5.65706377 C38.8992917,6.18183087 38.466638,6.38187507 38.0702713,6.38187507 C37.8255661,6.38187507 37.5613217,6.29162257 37.3724427,6.11018713 C37.164955,5.91014294 37.0142241,5.81989044 36.7695188,5.81989044 C36.2047429,5.81989044 36.0744816,6.41816215 35.9786464,6.94106838 C35.7711587,8.06410719 35.3757225,9.61886929 33.9437783,10.1268885 L33.9437783,10.2180714 C35.2436003,10.2180714 35.9786464,10.9949873 36.4866657,12.2641049 C37.4682779,14.7055745 38.4275596,15.9374746 39.0863098,15.99144 L39.3877717,16.0100487 C39.4826764,16.0100487 39.5385027,16.0640141 39.5385027,16.1524058 L39.5385027,16.4966679 L39.5198939,16.5338854 L38.0311929,16.5143462 C36.5611007,16.4957374 35.8828113,15.029367 35.0733302,13.0391598 C34.3364232,11.2313185 33.9809958,10.6330468 31.8326142,10.6330468 L31.8326142,15.2126633 C31.8326142,15.7532478 32.1154674,15.915144 32.8691222,15.9728312 L33.3585327,16.006327 C33.4338982,16.006327 33.5092637,16.0621533 33.5092637,16.1505449 L33.5092637,16.4957374 L33.4711157,16.5320245 C32.5667299,16.4957374 32.0205627,16.4957374 31.0789593,16.4957374 C30.1364255,16.4957374 29.5335016,16.4957374 28.610507,16.5320245 L28.572359,16.4957374 L28.572359,16.1524058 L28.5742199,16.1524058 L28.5742199,16.1524058 Z M53.2550215,15.9291006 C53.3676045,16.0351706 53.3676045,16.4175806 53.2550215,16.5264419 C52.3134181,16.5078331 51.7663205,16.4892244 50.8256475,16.4892244 C49.8645049,16.4892244 49.2987986,16.5087636 48.3767344,16.5264419 C48.2632209,16.4185111 48.2632209,16.036101 48.3767344,15.9291006 C49.6951652,15.8732743 50.0161664,15.7848827 50.0161664,14.2812947 L50.0161664,7.83801072 C49.8756702,7.88360219 49.7789046,7.96548075 49.6867913,8.07248113 L44.5423989,14.2273293 C44.3218851,14.4980868 44.1339366,14.6432351 44.0036752,15.0730975 C44.1376583,15.8211698 44.5572859,15.88537 45.5900722,15.9291006 C45.7035857,16.0370314 45.7035857,16.4175806 45.5900722,16.5264419 C44.6475384,16.5069027 44.1004408,16.4892244 43.1597679,16.4892244 C42.1986253,16.4892244 41.6338493,16.5087636 40.7108547,16.5264419 C40.5973413,16.4185111 40.5973413,16.0379619 40.7108547,15.9291006 C42.0292855,15.8742048 42.3502867,15.7848827 42.3502867,14.2812947 L42.3502867,7.02294693 C42.3502867,5.52215024 42.030216,5.42910643 40.7108547,5.37514102 C40.5973413,5.26814064 40.5973413,4.88666101 40.7108547,4.77966062 C41.6533885,4.79733895 42.1995557,4.81408683 43.1411591,4.81408683 C44.1023017,4.81408683 44.6670776,4.79547807 45.5900722,4.77966062 C45.7035857,4.88573057 45.7035857,5.2672102 45.5900722,5.37514102 C44.2716414,5.43003687 43.9497098,5.5212198 43.9497098,7.02294693 L43.9497098,13.4653005 C44.037171,13.4606483 44.1460323,13.3992394 44.2837371,13.2671172 L49.4597644,7.07691234 C49.6728347,6.82011142 49.8477571,6.49166676 49.9566183,6.19857876 C49.8170526,5.4821414 49.3937033,5.41701073 48.375804,5.37607146 C48.2622905,5.26814064 48.2622905,4.88666101 48.375804,4.77873018 C49.3183378,4.79733895 49.8645049,4.81501727 50.8051779,4.81501727 C51.7663205,4.81501727 52.3320268,4.79547807 53.2550215,4.77873018 C53.3676045,4.88573057 53.3676045,5.2672102 53.2550215,5.37607146 C51.9356602,5.43003687 51.6155895,5.52028937 51.6155895,7.02387737 L51.6155895,14.2812947 C51.6155895,15.7848827 51.9356602,15.8760656 53.2550215,15.9291006 L53.2550215,15.9291006 Z M66.6133215,4.78245194 C66.7259046,4.88852188 66.7259046,5.27000151 66.6133215,5.37793233 C65.2939603,5.43282818 64.9738896,5.52308068 64.9738896,7.02573824 L64.9738896,14.284086 C64.9738896,15.7867436 65.2939603,15.8769961 66.6133215,15.9318919 C66.7259046,16.0398228 66.7259046,16.4203719 66.6133215,16.5292332 C65.6903269,16.509694 65.1246206,16.4920157 64.163478,16.4920157 C63.2218746,16.4920157 62.674777,16.5115549 61.734104,16.5292332 C61.621521,16.4213024 61.621521,16.0407532 61.734104,15.9318919 C63.0525349,15.8769961 63.373536,15.787674 63.373536,14.284086 L63.373536,6.88152034 C63.373536,5.7603424 62.9594911,5.54355032 62.5063677,5.54355032 L58.79485,5.54355032 C58.3435875,5.54355032 57.9276817,5.75848152 57.9276817,6.88152034 L57.9276817,14.284086 C57.9276817,15.7867436 58.2477524,15.8769961 59.5671137,15.9318919 C59.6815576,16.0398228 59.6815576,16.4203719 59.5671137,16.5292332 C58.6255103,16.509694 58.0784127,16.4920157 57.1377397,16.4920157 C56.1765972,16.4920157 55.6108908,16.5115549 54.6878962,16.5292332 C54.5753132,16.4213024 54.5753132,16.0407532 54.6878962,15.9318919 C56.0072574,15.8769961 56.3273281,15.787674 56.3273281,14.284086 L56.3273281,7.02573824 C56.3273281,5.52494156 56.0072574,5.43189774 54.6878962,5.37793233 C54.5753132,5.27093195 54.5753132,4.88945232 54.6878962,4.78245194 C55.63043,4.80013026 56.6846164,4.81687815 57.119131,4.81687815 L64.1830172,4.81687815 C64.6910364,4.81687815 65.6717182,4.79826939 66.6133215,4.78245194 L66.6133215,4.78245194 Z M74.8086205,8.72750957 C74.922134,8.61957874 75.3175702,8.61957874 75.4310836,8.72750957 C75.4115444,9.2727463 75.3929356,9.66818251 75.3929356,10.285063 C75.3929356,10.8991521 75.4124748,11.2424838 75.4310836,11.8789035 C75.3175702,11.984043 74.922134,11.984043 74.8086205,11.8789035 C74.7518638,11.0638397 74.6960375,10.6451425 73.0947535,10.6451425 L71.3790256,10.6451425 L71.3790256,15.0070364 C71.3790256,15.4964469 71.6423396,15.7867436 72.057315,15.7867436 L74.620672,15.7867436 C76.0516858,15.7867436 76.7122969,14.7176702 77.0872635,13.4150568 C77.3356904,13.3564392 77.5506216,13.3955176 77.7469441,13.5053093 C77.5962131,14.4283039 77.3133599,15.6229865 77.0500459,16.5283028 C77.0500459,16.5283028 75.5427362,16.4910852 74.6383503,16.4910852 L70.5872228,16.4910852 C70.5872228,16.4910852 69.0603738,16.5106244 68.1373792,16.5283028 C68.0247962,16.4203719 68.0247962,16.0388923 68.1373792,15.9300311 C69.4567404,15.8760656 69.7768112,15.7867436 69.7768112,14.2831556 L69.7768112,7.02480781 C69.7768112,5.52308068 69.4567404,5.43189774 68.1373792,5.3770019 C68.0247962,5.27000151 68.0247962,4.88852188 68.1373792,4.7815215 C69.0808434,4.79919982 70.5676836,4.81594771 70.5676836,4.81594771 L75.3715356,4.81594771 C75.8237285,4.81594771 75.9744595,4.79733895 76.2945302,4.74337354 C76.3522174,4.74337354 76.3689652,4.76291274 76.3689652,4.79919982 C76.4071132,4.94341773 76.6908968,6.67961526 76.7830102,7.42117445 C76.5997139,7.50863563 76.3950175,7.54585315 76.1614775,7.51421826 C75.7474326,6.2655703 75.4450402,5.54168944 74.0326351,5.54168944 L72.0545237,5.54168944 C71.6041916,5.54168944 71.3762343,5.90269943 71.3762343,6.3362836 L71.3762343,9.95568788 L73.0910317,9.95568788 C74.6960375,9.95754876 74.7527942,9.72400879 74.8086205,8.72750957 L74.8086205,8.72750957 Z M82.401926,11.0443005 C82.8150405,8.98151917 83.0420674,7.11785162 83.0420674,5.97713448 C83.0420674,5.59751573 82.8717973,5.41049767 82.3823868,5.36304532 L81.8176109,5.30721904 C81.7227062,5.30721904 81.6678103,5.27186239 81.6678103,5.19835778 L81.6678103,4.81966946 L81.7050279,4.78524325 C81.7050279,4.78524325 83.0234587,4.81966946 83.5873042,4.81966946 L88.5046696,4.81966946 C89.0694456,4.81966946 90.5581466,4.78524325 90.5581466,4.78524325 L90.5962945,4.81966946 L90.5962945,5.16393157 C90.5962945,5.27186239 90.5218595,5.30163641 90.4455636,5.30721904 L89.8984659,5.34257569 C89.2936812,5.38258452 89.2024982,5.61426362 89.2024982,6.26743118 L89.2024982,15.080541 C89.2024982,15.7495261 89.6258476,15.9495703 89.9570835,16.0035357 C90.3655459,16.0714576 90.5106942,16.1319361 90.5218595,16.3477978 L90.6539817,19.0255987 C90.145032,19.0255987 90.145032,19.0451379 90.145032,19.0451379 C89.9189356,18.0318908 89.2406462,16.4929461 87.732406,16.4929461 L82.2698038,16.4929461 C80.7048069,16.4929461 80.2163269,18.1044649 80.0088392,19.0451379 L79.4989591,19.0255987 L79.6310813,16.3477978 C79.6441074,16.1319361 79.8413603,16.0305184 80.0283784,16.0035357 C80.3968319,15.9486398 80.6973634,15.9049092 80.9699817,15.6415952 C81.4631139,15.1707935 81.7999325,13.8672497 82.401926,11.0443005 L82.401926,11.0443005 Z M84.5875252,5.54261988 C84.0804364,5.54261988 83.8915574,5.79662949 83.8534095,6.24882241 C83.7008176,8.07620288 83.402147,9.95754876 83.1751201,11.1894488 C82.7610751,13.3061956 82.2902734,15.0991498 82.2902734,15.4778381 C82.2902734,15.6946302 82.5359091,15.7867436 82.7992231,15.7867436 L86.9247857,15.7867436 C87.3769786,15.7867436 87.6030751,15.7309173 87.6030751,15.0619323 L87.6030751,6.24696154 C87.6030751,5.68590735 87.4895616,5.54261988 86.9061769,5.54261988 L84.5875252,5.54261988 L84.5875252,5.54261988 Z M105.014364,15.9291006 C105.127877,16.0351706 105.127877,16.4175806 105.014364,16.5264419 C104.07183,16.5078331 103.525663,16.4892244 102.584059,16.4892244 C101.624778,16.4892244 101.058141,16.5087636 100.136077,16.5264419 C100.023494,16.4185111 100.023494,16.036101 100.136077,15.9291006 C101.453577,15.8732743 101.775509,15.7848827 101.775509,14.2812947 L101.775509,7.83801072 C101.634082,7.88360219 101.537316,7.96548075 101.446133,8.07248113 L96.3008106,14.2273293 C96.0821577,14.4980868 95.8932787,14.6432351 95.7630174,15.0730975 C95.8979309,15.8211698 96.3175585,15.88537 97.3494144,15.9291006 C97.4619974,16.0370314 97.4619974,16.4175806 97.3494144,16.5264419 C96.4068806,16.5069027 95.859783,16.4892244 94.9200405,16.4892244 C93.9588979,16.4892244 93.3931915,16.5087636 92.4701969,16.5264419 C92.3576139,16.4185111 92.3576139,16.0379619 92.4701969,15.9291006 C93.7895582,15.8742048 94.1096289,15.7848827 94.1096289,14.2812947 L94.1096289,7.02294693 C94.1096289,5.52215024 93.7895582,5.42910643 92.4701969,5.37514102 C92.3576139,5.26814064 92.3576139,4.88666101 92.4701969,4.77966062 C93.4127307,4.79733895 93.9588979,4.81408683 94.8995708,4.81408683 C95.859783,4.81408683 96.4264198,4.79547807 97.3494144,4.77966062 C97.4619974,4.88573057 97.4619974,5.2672102 97.3494144,5.37514102 C96.0300532,5.43003687 95.709052,5.5212198 95.709052,7.02294693 L95.709052,13.4653005 C95.7974436,13.4606483 95.9053744,13.3992394 96.0421488,13.2671172 L101.219107,7.07691234 C101.432177,6.82011142 101.606169,6.49166676 101.715961,6.19857876 C101.577325,5.4821414 101.153976,5.41701073 100.136077,5.37607146 C100.023494,5.26814064 100.023494,4.88666101 100.136077,4.77873018 C101.07768,4.79733895 101.624778,4.81501727 102.565451,4.81501727 C103.525663,4.81501727 104.092299,4.79547807 105.014364,4.77873018 C105.127877,4.88573057 105.127877,5.2672102 105.014364,5.37607146 C103.695933,5.43003687 103.374932,5.52028937 103.374932,7.02387737 L103.374932,14.2812947 C103.374932,15.7848827 103.695933,15.8760656 105.014364,15.9291006 L105.014364,15.9291006 Z M106.009932,16.01284 C106.009932,15.88537 106.085298,15.8100045 106.184855,15.8100045 L106.410021,15.7839523 C107.213919,15.683465 108.459776,14.2952513 109.752155,10.8889173 C110.37927,9.23273747 111.131994,8.59445691 111.811214,8.18785546 L111.811214,8.11248997 C110.10293,7.85754992 108.069922,6.5828497 108.069922,3.98227515 C108.069922,2.22281667 108.923134,0.0316348961 113.594864,0.0316348961 C114.474128,0.0316348961 115.955385,0.0567567253 116.785336,0.0567567253 C117.564113,0.0567567253 120,0.0316348961 120,0.0316348961 L120,0.566636815 C120,0.66805457 119.949756,0.74248962 119.825078,0.74248962 L119.070492,0.795524593 C118.014445,0.871820518 117.738105,1.05139508 117.738105,1.91670253 L117.738105,14.6357916 C117.738105,15.4015422 118.06655,15.6816041 119.095614,15.7569696 L119.773904,15.810935 C119.87346,15.810935 119.974878,15.8863005 119.974878,16.0137705 L119.974878,16.4985287 L119.924635,16.5515637 C119.924635,16.5515637 117.738105,16.4985287 116.760214,16.4985287 C115.855829,16.4985287 113.521359,16.5515637 113.521359,16.5515637 L113.470185,16.4985287 L113.470185,16.0137705 C113.470185,15.8863005 113.546481,15.810935 113.67209,15.810935 L114.324327,15.7569696 C115.380375,15.6769519 115.705098,15.3503681 115.705098,14.6357916 L115.705098,8.23902955 C113.043114,8.23902955 112.541608,8.97779742 111.486491,11.6816506 C110.406253,14.4459823 109.477675,16.4957374 107.694956,16.5236506 L106.037846,16.5469115 L106.012724,16.4957374 L106.009932,16.01284 L106.009932,16.01284 Z M113.745595,7.27137391 L115.704167,7.27137391 L115.704167,1.84319792 C115.704167,0.999290541 115.60461,0.923925053 113.419011,0.923925053 C112.012189,0.923925053 110.10386,1.33145695 110.10386,3.70128284 C110.10386,6.40327514 111.661414,7.27137391 113.745595,7.27137391 Z" id="wikipedia-wordmark-alt" fill="#000000" fill-rule="nonzero"></path>
    </g>
</svg>

<svg xmlns="http://www.w3.org/2000/svg" width="120" height="20"><path fill="#000" fill-rule="nonzero" d="M6.491 0c4.672 0 5.4 2.216 5.4 3.925 0 1.383-1.127 2.693-2.385 3.34v.051c2.185.638 3.868 2.038 3.868 4.487 0 2.19-1.332 4.741-6.33 4.741-2.234 0-2.586-.053-3.666-.053-1.28 0-2.034.026-3.265.053-.15-.153-.15-.69 0-.843 1.759-.075 2.185-.203 2.185-2.318V3.161C2.298 1.046 1.872.917.113.84c-.15-.152-.15-.687 0-.84 1.256.024 1.984.051 3.24.051C4.433.052 5.612 0 6.49 0ZM4.432 7.163h1.86c2.083 0 3.566-.766 3.566-2.93 0-2.601-1.834-3.365-3.24-3.365-2.186 0-2.186.253-2.186 1.095v5.2Zm0 6.829c0 .842.327 1.708 2.085 1.708 3.818 0 4.52-1.553 4.52-3.415 0-2.293-1.432-4.256-4.871-4.256H4.432v5.963Zm22.88 1.937c.113.106.113.489 0 .597-.942-.018-1.488-.037-2.43-.037-.96 0-1.526.02-2.449.037-.113-.107-.113-.49 0-.597 1.319-.056 1.64-.144 1.64-1.648V7.838a.708.708 0 0 0-.33.234l-5.145 6.155c-.22.271-.408.416-.539.846.134.748.554.812 1.587.856.113.108.113.489 0 .597-.943-.02-1.489-.037-2.43-.037-.962 0-1.526.02-2.45.037-.112-.107-.112-.488 0-.597 1.319-.055 1.64-.144 1.64-1.648V7.023c0-1.5-.32-1.594-1.64-1.648-.112-.107-.112-.488 0-.595.943.017 1.49.034 2.43.034.962 0 1.527-.019 2.45-.034.113.106.113.487 0 .595-1.319.055-1.64.146-1.64 1.648v6.442c.087-.004.196-.066.333-.198l5.177-6.19c.213-.257.388-.585.497-.878-.14-.717-.563-.782-1.58-.823-.114-.108-.114-.49 0-.597.942.018 1.488.036 2.43.036.96 0 1.526-.02 2.449-.036.112.107.112.488 0 .597-1.319.054-1.64.144-1.64 1.648v7.257c.001 1.504.321 1.595 1.64 1.648Zm1.262.223c0-.09.057-.143.132-.143l.508-.034c.792-.058 1.018-.255 1.018-.76V6.11c0-.543-.283-.706-1.018-.76l-.489-.036c-.075 0-.15-.055-.15-.144v-.344l.037-.034c.943.017 1.508.034 2.45.034.942 0 1.488-.018 2.411-.034l.038.034v.344c0 .092-.057.144-.15.144l-.49.035c-.754.058-1.037.254-1.037.761v3.764c.679 0 1.526-.018 1.979-.27 1.11-.58 1.375-1.738 1.544-2.751.189-1.12.717-2.137 2.204-2.137.999 0 1.338.524 1.338.941 0 .525-.432.725-.829.725-.244 0-.509-.09-.698-.272-.207-.2-.358-.29-.602-.29-.565 0-.696.598-.791 1.121-.208 1.123-.603 2.678-2.035 3.186v.091c1.3 0 2.035.777 2.543 2.046.981 2.442 1.94 3.673 2.6 3.727l.3.019c.096 0 .152.054.152.142v.345l-.02.037-1.488-.02c-1.47-.018-2.148-1.485-2.958-3.475-.737-1.808-1.092-2.406-3.24-2.406v4.58c0 .54.282.702 1.036.76l.49.033c.075 0 .15.056.15.145v.345l-.038.036c-.904-.036-1.45-.036-2.392-.036-.943 0-1.545 0-2.468.036l-.039-.036v-.344h.002Zm24.681-.223c.113.106.113.489 0 .597-.942-.018-1.489-.037-2.43-.037-.96 0-1.526.02-2.448.037-.114-.107-.114-.49 0-.597 1.318-.056 1.64-.144 1.64-1.648V7.838a.712.712 0 0 0-.33.234l-5.145 6.155c-.22.271-.408.416-.538.846.134.748.553.812 1.586.856.114.108.114.489 0 .597-.942-.02-1.49-.037-2.43-.037-.961 0-1.526.02-2.45.037-.113-.107-.113-.488 0-.597 1.32-.055 1.64-.144 1.64-1.648V7.023c0-1.5-.32-1.594-1.64-1.648-.113-.107-.113-.488 0-.595.943.017 1.49.034 2.431.034.961 0 1.526-.019 2.45-.034.113.106.113.487 0 .595-1.32.055-1.641.146-1.641 1.648v6.442c.087-.004.196-.066.334-.198l5.176-6.19c.213-.257.388-.585.497-.878-.14-.717-.563-.782-1.581-.823-.114-.108-.114-.49 0-.597.942.018 1.489.036 2.43.036.96 0 1.526-.02 2.449-.036.113.107.113.488 0 .597-1.32.054-1.64.144-1.64 1.648v7.257c0 1.504.32 1.595 1.64 1.648ZM66.613 4.782c.113.107.113.488 0 .596-1.319.055-1.64.145-1.64 1.648v7.258c0 1.503.321 1.593 1.64 1.648.113.108.113.488 0 .597-.923-.02-1.488-.037-2.45-.037-.941 0-1.488.02-2.429.037-.112-.108-.112-.488 0-.597 1.319-.055 1.64-.144 1.64-1.648V6.882c0-1.122-.415-1.338-.868-1.338h-3.711c-.451 0-.867.214-.867 1.338v7.402c0 1.503.32 1.593 1.64 1.648.114.108.114.488 0 .597-.942-.02-1.49-.037-2.43-.037-.961 0-1.527.02-2.45.037-.113-.108-.113-.488 0-.597 1.32-.055 1.64-.144 1.64-1.648V7.026c0-1.501-.32-1.594-1.64-1.648-.113-.107-.113-.489 0-.596.942.018 1.997.035 2.431.035h7.064c.508 0 1.489-.019 2.43-.035Zm8.196 3.946c.113-.108.509-.108.622 0-.02.545-.038.94-.038 1.557 0 .614.02.957.038 1.594-.113.105-.509.105-.622 0-.057-.815-.113-1.234-1.714-1.234h-1.716v4.362c0 .49.263.78.678.78h2.564c1.43 0 2.091-1.07 2.466-2.372a.881.881 0 0 1 .66.09c-.15.923-.434 2.118-.697 3.023 0 0-1.507-.037-2.412-.037h-4.05s-1.528.02-2.45.037c-.113-.108-.113-.49 0-.598 1.319-.054 1.639-.143 1.639-1.647V7.025c0-1.502-.32-1.593-1.64-1.648-.112-.107-.112-.488 0-.595.944.017 2.43.034 2.43.034h4.805c.452 0 .602-.019.923-.073.057 0 .074.02.074.056.038.144.322 1.88.414 2.622a1.073 1.073 0 0 1-.622.093c-.414-1.248-.716-1.972-2.128-1.972h-1.978c-.45 0-.679.36-.679.794v3.62h1.715c1.605.002 1.662-.232 1.718-1.228Zm7.593 2.316c.413-2.062.64-3.926.64-5.067 0-.38-.17-.567-.66-.614l-.564-.056c-.095 0-.15-.035-.15-.109V4.82l.037-.035s1.318.035 1.882.035h4.918c.564 0 2.053-.035 2.053-.035l.038.035v.344c0 .108-.074.138-.15.143l-.548.036c-.604.04-.696.271-.696.924v8.814c0 .669.424.869.755.923.409.067.554.128.565.344l.132 2.678c-.509 0-.509.02-.509.02-.226-1.014-.904-2.553-2.413-2.553H82.27c-1.565 0-2.054 1.611-2.261 2.552l-.51-.02.132-2.677c.013-.216.21-.317.397-.344.369-.055.67-.1.942-.362.493-.471.83-1.775 1.432-4.598Zm2.186-5.501c-.508 0-.696.254-.735.706a53.197 53.197 0 0 1-.678 4.94c-.414 2.117-.885 3.91-.885 4.289 0 .217.246.309.51.309h4.125c.452 0 .678-.056.678-.725V6.247c0-.561-.113-.704-.697-.704h-2.318Zm20.426 10.386c.114.106.114.489 0 .597-.942-.018-1.488-.037-2.43-.037-.96 0-1.526.02-2.448.037-.113-.107-.113-.49 0-.597 1.318-.056 1.64-.144 1.64-1.648V7.838a.703.703 0 0 0-.33.234l-5.145 6.155c-.219.271-.408.416-.538.846.135.748.555.812 1.586.856.113.108.113.489 0 .597-.942-.02-1.49-.037-2.429-.037-.961 0-1.527.02-2.45.037-.112-.107-.112-.488 0-.597 1.32-.055 1.64-.144 1.64-1.648V7.023c0-1.5-.32-1.594-1.64-1.648-.112-.107-.112-.488 0-.595.943.017 1.489.034 2.43.034.96 0 1.526-.019 2.45-.034.112.106.112.487 0 .595-1.32.055-1.64.146-1.64 1.648v6.442c.087-.004.195-.066.332-.198l5.177-6.19a3.17 3.17 0 0 0 .497-.878c-.139-.717-.562-.782-1.58-.823-.113-.108-.113-.49 0-.597.942.018 1.489.036 2.43.036.96 0 1.526-.02 2.448-.036.114.107.114.488 0 .597-1.318.054-1.64.144-1.64 1.648v7.257c0 1.504.322 1.595 1.64 1.648Zm.996.084c0-.128.075-.203.175-.203l.225-.026c.804-.1 2.05-1.489 3.342-4.895.627-1.656 1.38-2.295 2.06-2.701v-.076c-1.71-.254-3.742-1.53-3.742-4.13 0-1.76.853-3.95 5.525-3.95.88 0 2.36.025 3.19.025.78 0 3.215-.025 3.215-.025v.535c0 .101-.05.175-.175.175l-.755.054c-1.056.076-1.332.255-1.332 1.12v12.72c0 .766.329 1.046 1.358 1.121l.678.054a.2.2 0 0 1 .2.203v.485l-.05.053s-2.186-.053-3.164-.053c-.904 0-3.239.053-3.239.053l-.05-.053v-.485c0-.128.075-.203.201-.203l.652-.054c1.056-.08 1.381-.407 1.381-1.121V8.239c-2.662 0-3.163.739-4.219 3.443-1.08 2.764-2.008 4.814-3.791 4.842l-1.657.023-.025-.051-.003-.483Zm7.736-8.742h1.958V1.843c0-.844-.1-.92-2.285-.92-1.407 0-3.315.408-3.315 2.778 0 2.702 1.557 3.57 3.642 3.57Z"/></svg>
